X:1714
T:Bonaparte Crossing the Rocky Mountains
I:speed 300
M:4/4
S:unknown, photocopy
N:A Aeolian
K:C
|:A2 AB AGEG | cdec d2 eg | aged cAGE | G2GA G2cB |
A2 AB AGEG | cdec d2 eg | aged cABG |[1A2AB A2cB:|[2A2AB A2eg|
|: aged ^cdeg | age^c d2 eg | aged cAGE | G2 GA G2cB | 
A2AB AGEG |cdec d2eg | aged cABG |[1A2AB A2eg :|[2A2AB A4||


